!!!!SEGMENT:pl-kk--kk-i-397--006_kaspar-missa-agnus-dei.krn
!!!id: 18xx:1451
!!!COM: Kaspar
!!!OTL: Missa – Agnus Dei
!!!PDT: 1856
!!!SMS-siglum: PL-Kk
!!!SMS-shelfmark: Kk.I.397
!!!NIFC-rismID: 1001139936
!!!URL-scan: http://repozytorium.nifc.pl/skany/pl-kk-nut--i-397
!!!ONB-nifc: UWAGA: na podstawie głosów. Proszę uzupełnić pola !!!SMS dot. partytury i głosów. Uwaga: części Mszy: 1. Kyrie, 2. Gloria, 3. Credo, 4. Sanctus, 5. Benedictus, 6. Agnus
!!!SMS-variant: Sopran: PL-Kk Kk.I.397:16; alt.: PL-Kk Kk.I.397:21; Tenor.: PL-Kk Kk.I.397:26; Bas.: PL-Kk Kk.I.397:31
!!!SMS-altvar: Partytura: PL-Kk Kk.I.397:9-10
**kern	**text	**dynam	**kern	**text	**dynam	**kern	**text	**dynam	**kern	**text	**dynam
*part4	*part4	*part4	*part3	*part3	*part3	*part2	*part2	*part2	*part1	*part1	*part1
*staff4	*staff4	*	*staff3	*staff3	*	*staff2	*staff2	*	*staff1	*staff1	*
*I"Bas.	*	*	*I"Tenor.	*	*	*I"alt.	*	*	*I"Sopran	*	*
*I'B	*	*	*I'T	*	*	*I'A	*	*	*I'S	*	*
*clefF4	*	*	*clefC4	*	*	*clefC3	*	*	*clefC1	*	*
*k[b-]	*	*	*k[b-]	*	*	*k[b-]	*	*	*k[b-]	*	*
*M4/4	*	*	*M4/4	*	*	*M4/4	*	*	*M4/4	*	*
*met(c)	*	*	*met(c)	*	*	*met(c)	*	*	*met(c)	*	*
=1	=1	=1	=1	=1	=1	=1	=1	=1	=1	=1	=1
*2\right	*	*	*2\right	*	*	*2\right	*	*	*2\right	*	*
!LO:TX:a:t=P:problem:napis "agnus" przed kluczem	!	!	!LO:TX:a:t=P:problem:napis "agnus" przed kluczem	!	!	!LO:TX:a:t=P:problem:napis "agnus" przed kluczem	!	!	!LO:TX:a:t=P:problem:napis "agnus" przed kluczem	!	!
!LO:TX:Bi:a:t=agnus	!	!	!LO:TX:Bi:a:t=agnus	!	!	!LO:TX:Bi:a:t=agnus	!	!	!LO:TX:Bi:a:t=agnus	!	!
!LO:TX:a:t=andante	!	!	!LO:TX:t=P:problem:all\right:global	!	!	!	!	!	!LO:TX:t=P:problem:all\right:global	!	!
!LO:TX:t=P:problem:all\right:global	!	!	!LO:TX:i:a:t=andante	!	!	!LO:TX:a:i:t=andante	!	!LO:DY:a:t=p&colon;	!LO:TX:i:a:t=andante	!	!LO:DY:a:t=p&colon;:rj
(>1F	a-	.	(>2A\	a-	.	2r	.	p	(>2cc\	a-	p
!	!	!	!	!	!	!LO:TX:t=P:problem:all\right:global	!	!	!	!	!
.	.	.	[>2c\	.	.	[>2f\	a-	.	2a\)	.	.
=2	=2	=2	=2	=2	=2	=2	=2	=2	=2	=2	=2
4C/	.	.	4c\]	.	.	2f\]	.	.	1g	-gnus	.
4D/)	.	.	4Bn\)	.	.	.	.	.	.	.	.
2C/	-gnus	.	2c\	-gnus	.	2e\	-gnus	.	.	.	.
=3	=3	=3	=3	=3	=3	=3	=3	=3	=3	=3	=3
(>2.F\	De-	.	(>2c\	De-	.	1f	De-	.	2a\	De-	.
.	.	.	4A\)	.	.	.	.	.	(>4cc\	-i	.
4D\	.	.	4B-\	-i	.	.	.	.	4b-\)	.	.
=4	=4	=4	=4	=4	=4	=4	=4	=4	=4	=4	=4
4C\)	.	.	1c	qui	.	2f\	-i	.	(>2.a\	qui	.
4F\	-i	.	.	.	.	.	.	.	.	.	.
(>4A\	qui	.	.	.	.	2c\	qui	.	.	.	.
4G\)	.	.	.	.	.	.	.	.	4b-\)	.	.
=5	=5	=5	=5	=5	=5	=5	=5	=5	=5	=5	=5
(>2F\	tol-	.	(>2c\	tol-	.	1f	tol-	.	(>4a\	tol-	.
.	.	.	.	.	.	.	.	.	4g\)	.	.
2D\)	.	.	2d\)	.	.	.	.	.	2a\	-lis	.
=6	=6	=6	=6	=6	=6	=6	=6	=6	=6	=6	=6
2C/	-lis	.	2e\	-lis	.	2g\	-lis	.	(>2cc\	pec-	.
2F\	pec-	.	2f\	pec-	.	2c\	pec-	.	2a\)	.	.
=7	=7	=7	=7	=7	=7	=7	=7	=7	=7	=7	=7
!	!	!	!	!	!	!	!	!	!LO:TX:a:t=P:problem:niejednoznaczny zapis łuków w tym takcie	!	!
2F#X\	-ca-	.	2c\	-ca-	.	[>2d\	-ca-	.	(>2a\	-ca-	.
2G\	-ta	.	(>4.B-\	-ta	.	8d\L]	.	.	8b-\L	.	.
!	!	!	!	!	!	!LO:TX:a:t=P:problem:wytarty łuk	!	!	!	!	!
.	.	.	.	.	.	(>8f\	.	.	(>8a\)	.	.
.	.	.	.	.	.	(>8e\	-ta	.	(>8g\	-ta	.
.	.	.	8d\)	.	.	8d\J))	.	.	8f\J))	.	.
!LO:LB:g=original	!	!	!LO:LB:g=original	!	!	!LO:LB:g=original	!	!	!LO:LB:g=original	!	!
=8	=8	=8	=8	=8	=8	=8	=8	=8	=8	=8	=8
2A\	mun-	.	2d\	mun-	.	2a\	mun-	.	2f/	mun-	.
4A\	-di	.	4c#X\	-di	.	4a\	-di	.	4e/	-di	.
4r	.	.	4r	.	.	4r	.	.	4r	.	.
=9	=9	=9	=9	=9	=9	=9	=9	=9	=9	=9	=9
!	!	!LO:DY:a:t=p&colon;:rj	!	!	!	!	!	!	!	!	!
2D\	mi-	p	2d\	mi-	.	2f\	mi-	.	2r	.	.
!	!	!	!	!	!	!	!	!	!	!	!LO:DY:a:t=p.:rj
2F\	-se-	.	2d\	-se-	.	2f\	-se-	.	[>2a\	mi-	p
=10	=10	=10	=10	=10	=10	=10	=10	=10	=10	=10	=10
(>4G\	-re-	.	2d\	-re-	.	2e\	-re-	.	4a\]	.	.
4E\)	.	.	.	.	.	.	.	.	4a\	-se-	.
2AA/	-re	.	2c#X\	-re	.	2e\	-re	.	4b-^>\	-re-	.
.	.	.	.	.	.	.	.	.	4a\	-re	.
=11	=11	=11	=11	=11	=11	=11	=11	=11	=11	=11	=11
2D\	mi-	.	2d\	mi-	.	2f\	mi-	.	2r	.	.
2F\	-se-	.	2d\	-se-	.	2f\	-se-	.	[>2a\	mi-	.
=12	=12	=12	=12	=12	=12	=12	=12	=12	=12	=12	=12
(>4G\	-re-	.	2d\	-re-	.	2e\	-re-	.	4a\]	.	.
4E\)	.	.	.	.	.	.	.	.	4a\	-se-	.
2AA/	-re	.	2c#X\	-re	.	2e\	-re	.	4b-^>\	-re-	.
.	.	.	.	.	.	.	.	.	4a\	-re	.
=13	=13	=13	=13	=13	=13	=13	=13	=13	=13	=13	=13
2D\	mi-	.	2d\	mi-	.	2f\	mi-	.	2a\	mi-	.
2D\	-se-	.	2Bn\	-se-	.	2f\	-se-	.	2g#X\	-se-	.
=14	=14	=14	=14	=14	=14	=14	=14	=14	=14	=14	=14
2Cn\	-re-	.	2c\	-re-	.	2e\	-re-	.	2a\	-re-	.
2F\	-re	.	2c\	-re	.	2d#X\	-re	.	2a\	-re	.
!LO:LB:g=original	!	!	!	!	!	!	!	!	!	!	!
=15	=15	=15	=15	=15	=15	=15	=15	=15	=15	=15	=15
!	!	!	!	!	!	!	!	!LO:DY:a	!	!	!
[>1E	no-	.	(>2c\	no-	.	1e	no-	>]	2a\	no-	.
.	.	.	2e\)	.	.	.	.	.	[>2cc\	.	>]]
!	!	!	!LO:LB:g=original	!	!	!LO:LB:g=original	!	!	!LO:LB:g=original	!	!
=16	=16	=16	=16	=16	=16	=16	=16	=16	=16	=16	=16
!	!	!	!	!	!	!	!	!LO:DY:a	!	!	!
1E]	.	.	(>2d#X\	-o-	.	2f#X\	-o-	>	(>2cc\]	.	.
.	.	.	2dn\)	.	.	4g#X\	.	.	2bn\)	.	.
.	.	.	.	.	.	4f#\	.	]]	.	.	.
=17	=17	=17	=17	=17	=17	=17	=17	=17	=17	=17	=17
!	!	!	!	!	!LO:DY:a:t=p&colon;	!	!	!	!	!	!
2A\	-bis	.	2c\	-bis	p	2e\	-bis	.	2a\	-bis	.
2r	.	.	2r	.	.	2r	.	.	2r	.	.
=18	=18	=18	=18	=18	=18	=18	=18	=18	=18	=18	=18
!	!	!	!	!	!	!	!	!LO:DY:a:t=f&colon;:rj	!	!	!
(>4.A\	a-	.	(>1A	a-	.	(>2.c\	a-	f	2r	.	.
8G\	.	.	.	.	.	.	.	.	.	.	.
2F\	.	.	.	.	.	.	.	.	[>2a\	a-	.
.	.	.	.	.	.	4d\	.	.	.	.	.
=19	=19	=19	=19	=19	=19	=19	=19	=19	=19	=19	=19
4E\	.	.	4c\	.	.	4e\	.	.	2a\]	.	.
4D\)	.	.	4Bn\)	.	.	4f\)	.	.	.	.	.
2E\	-gnus	.	2B\	-gnus	.	2e\	-gnus	.	2g#X\	-gnus	.
=20	=20	=20	=20	=20	=20	=20	=20	=20	=20	=20	=20
4C\	De-	.	(>2c\	De-	.	2e\	De-	.	1a	De-	.
(>4A\	.	.	.	.	.	.	.	.	.	.	.
4F\	.	.	2A\)	.	.	4d\	.	.	.	.	.
4D\	.	.	.	.	.	4f\	-i	.	.	.	.
=21	=21	=21	=21	=21	=21	=21	=21	=21	=21	=21	=21
4.C/)	.	.	2.A\	-i	.	(>2e\	qui	.	2a\	-i	.
8BBn/	-i	.	.	.	.	.	.	.	.	.	.
(>4AA/	qui	.	.	.	.	4c\	.	.	2e/	qui	.
4E\)	.	.	4G#X/	qui	.	4Bn\)	.	.	.	.	.
!LO:LB:g=original	!	!	!	!	!	!	!	!	!	!	!
=22	=22	=22	=22	=22	=22	=22	=22	=22	=22	=22	=22
4A\	tol-	.	4A\	tol-	.	1c	tol-	.	1a	tol-	.
(>4G\	.	.	(>4Bn\	.	.	.	.	.	.	.	.
4F#X\	.	.	4A\	.	.	.	.	.	.	.	.
4E\)	.	.	4G\)	.	.	.	.	.	.	.	.
!	!	!	!LO:LB:g=original	!	!	!LO:LB:g=original	!	!	!	!	!
=23	=23	=23	=23	=23	=23	=23	=23	=23	=23	=23	=23
(>4D#X\	-lis	.	(>4F#X/	-lis	.	2Bn/	-lis	.	2bn\	-lis	.
4E\)	.	.	4G#X\)	.	.	.	.	.	.	.	.
(<4C/	pec-	.	(>4A\	pec-	.	[>2A/	pec-	.	2e/	pec-	.
4AA/)	.	.	4c\)	.	.	.	.	.	.	.	.
=24	=24	=24	=24	=24	=24	=24	=24	=24	=24	=24	=24
2D\	-ca-	.	[>2d\	-ca-	.	4A/]	.	.	2f/	-ca-	.
.	.	.	.	.	.	(>4.f\	-ca-	.	.	.	.
2D\	-ta	.	8d\L]	.	.	.	.	.	2f/	-ta	.
.	.	.	8c\J	.	.	8e\)	.	.	.	.	.
.	.	.	8Bn\L	-ta	.	(>8d\L	-ta	.	.	.	.
.	.	.	8A\J	.	.	8c\J)	.	.	.	.	.
!	!	!	!	!	!	!	!	!	!LO:LB:g=original	!	!
=25	=25	=25	=25	=25	=25	=25	=25	=25	=25	=25	=25
2E\	mun-	.	2A\	mun-	.	2c\	mun-	.	2e/	mun-	.
4E\	-di	.	4G#X/	-di	.	4Bn/	-di	.	4e/	-di	.
4r	.	.	4r	.	.	4r	.	.	4r	.	p
=26	=26	=26	=26	=26	=26	=26	=26	=26	=26	=26	=26
2A\	mi-	.	2c\	mi-	.	2r	.	.	2a\	mi-	.
!	!	!	!	!	!	!	!	!LO:DY:a:t=p&colon;:rj	!	!	!
2A\	-se-	.	2c\	-se-	.	[>2e\	mi-	p	2a\	-se-	.
=27	=27	=27	=27	=27	=27	=27	=27	=27	=27	=27	=27
2Bn\	-re-	.	2d\	-re-	.	4e\]	.	.	2a\	-re-	.
.	.	.	.	.	.	4e\	-se-	.	.	.	.
2E\	-re	.	2d\	-re	.	4f^>\	-re-	.	2g#X\	-re	.
.	.	.	.	.	.	4e\	-re	.	.	.	.
!LO:LB:g=original	!	!	!	!	!	!	!	!	!	!	!
=28	=28	=28	=28	=28	=28	=28	=28	=28	=28	=28	=28
2A\	mi-	.	2c\	mi-	.	2r	.	.	2a\	mi-	.
2A\	-se-	.	2c\	-se-	.	[>2e\	mi-	.	2a\	-se-	.
!	!	!	!	!	!	!LO:LB:g=original	!	!	!	!	!
=29	=29	=29	=29	=29	=29	=29	=29	=29	=29	=29	=29
2Bn\	-re-	.	2d\	-re-	.	4e\]	.	.	2a\	-re-	.
.	.	.	.	.	.	4e\	-se-	.	.	.	.
2E\	-re	.	2d\	-re	.	4f^>\	-re-	.	2g#X\	-re	.
.	.	.	.	.	.	4e\	-re	.	.	.	.
!	!	!	!LO:LB:g=original	!	!	!	!	!	!	!	!
=30	=30	=30	=30	=30	=30	=30	=30	=30	=30	=30	=30
2A\	mi-	.	2c\	mi-	.	2e\	mi-	.	2a\	mi-	.
2G\	-se-	.	2c\	-se-	.	2e\	-se-	.	2b-X\	-se-	.
=31	=31	=31	=31	=31	=31	=31	=31	=31	=31	=31	=31
2F\	-re-	.	2c\	-re-	.	2f\	-re-	.	2a\	-re-	.
2D-X\	-re	.	2Bn\	-re	.	2f\	-re	.	2g#X\	-re	.
=32	=32	=32	=32	=32	=32	=32	=32	=32	=32	=32	=32
!	!	!	!	!	!	!	!	!	!LO:TX:a:t=P:problem:łuk rozpoczyna się na kresce taktowej	!	!
[>1C	no-	.	(>1c	no-	.	(>(>2f\	no-	.	(>1a	no-	.
.	.	.	.	.	.	2c\)	.	.	.	.	.
=33	=33	=33	=33	=33	=33	=33	=33	=33	=33	=33	=33
1C]	.	.	2Bn\	.	.	2d\	.	.	2gn\	.	.
.	.	.	2B-X\)	.	.	2e\)	.	.	2cc\)	.	.
!	!	!	!	!	!	!	!	!	!LO:LB:g=original	!	!
=34	=34	=34	=34	=34	=34	=34	=34	=34	=34	=34	=34
2F\	-bis	.	2A\	-bis	.	2f\	-bis	.	2f/	-bis	.
2r	.	.	2r	.	.	2r	.	.	2r	.	.
=35	=35	=35	=35	=35	=35	=35	=35	=35	=35	=35	=35
!	!	!	!	!	!	!	!	!LO:DY:a:t=f&colon;:rj	!	!	!
2F\	a-	.	(>2.A\	a-	.	(>4c\	a-	f	2r	.	.
.	.	.	.	.	.	2f\	.	.	.	.	.
(>4c\	.	.	.	.	.	.	.	.	[>2f/	a-	.
4B-\	.	.	4B-\	.	.	4d\	.	.	.	.	.
=36	=36	=36	=36	=36	=36	=36	=36	=36	=36	=36	=36
4A\	.	.	4c\	.	.	4c\	.	.	2f/]	.	.
2G\)	.	.	4d\)	.	.	4Bn\)	.	.	.	.	.
.	.	.	2c\	-gnus	.	(>4c\	.	.	2e/	-gnus	.
4C/	-gnus	.	.	.	.	4B-X\)	-gnus	.	.	.	.
!LO:LB:g=original	!	!	!	!	!	!LO:LB:g=original	!	!	!	!	!
=37	=37	=37	=37	=37	=37	=37	=37	=37	=37	=37	=37
1F	De-	.	(>4c\	De-	.	(>4A\	De-	.	1f	De-	.
.	.	.	4A\	.	.	4c\	.	.	.	.	.
.	.	.	4F\	.	.	4d\)	.	.	.	.	.
.	.	.	4d\)	.	.	4B-\	-i	.	.	.	.
!	!	!	!LO:LB:g=original	!	!	!	!	!	!	!	!
=38	=38	=38	=38	=38	=38	=38	=38	=38	=38	=38	=38
2F\	-i	.	4c\	.	.	(>4A\	qui	.	2f/	-i	.
.	.	.	4A\	-i	.	4f\	.	.	.	.	.
(>4F\	qui	.	8A\L	qui	.	4a\	.	.	2c/	qui	.
.	.	.	8B-\J	.	.	.	.	.	.	.	.
4E\)	.	.	4c\	.	.	4g\)	.	.	.	.	.
=39	=39	=39	=39	=39	=39	=39	=39	=39	=39	=39	=39
(>4D/	tol-	.	(<8F/L	tol-	.	(>4f\	tol-	.	1f	tol-	.
.	.	.	8G/J	.	.	.	.	.	.	.	.
4C/	.	.	4A/)	.	.	4e\	.	.	.	.	.
4BB-/	.	.	(<8D/L	.	.	4d\	.	.	.	.	.
.	.	.	8E/J	.	.	.	.	.	.	.	.
4AA/)	.	.	4F/)	.	.	4c\)	.	.	.	.	.
=40	=40	=40	=40	=40	=40	=40	=40	=40	=40	=40	=40
(<4GG/	-lis	.	(<4F/	-lis	.	(<4Bn/	-lis	.	2g\	-lis	.
4C/)	.	.	4E/)	.	.	4c/)	.	.	.	.	.
2D\	pec-	.	2F/	pec-	.	2A/	pec-	.	2f/	pec-	.
=41	=41	=41	=41	=41	=41	=41	=41	=41	=41	=41	=41
(>4BB-\	-ca-	.	[>2B-\	-ca-	.	[>2d\	-ca-	.	2d/	-ca-	.
4F#X\	.	.	.	.	.	.	.	.	.	.	.
4G\)	.	.	8B-\L]	.	.	(>8d\L]	.	.	2d/	-ta	.
.	.	.	8A\J	.	.	8c\J)	.	.	.	.	.
4BB-/	-ta	.	(<8G/L	-ta	.	(<8B-/L	-ta	.	.	.	.
.	.	.	8F/J)	.	.	8A/J)	.	.	.	.	.
=42	=42	=42	=42	=42	=42	=42	=42	=42	=42	=42	=42
2C/	mun-	.	2F/	mun-	.	2A/	mun-	.	2c/	mun-	.
4C/	-di	.	4E/	-di	.	4G/	-di	.	4c/	-di	.
4r	.	.	4r	.	.	4r	.	.	4r	.	.
!LO:LB:g=original	!	!	!	!	!	!LO:LB:g=original	!	!	!LO:LB:g=original	!	!
=43||	=43||	=43||	=43||	=43||	=43||	=43||	=43||	=43||	=43||	=43||	=43||
!LO:TX:a:i:t=poco piu:rj	!	!	!LO:TX:i:a:t=poco piu:rj	!	!	!LO:TX:i:a:t=poco piu:rj	!	!	!LO:TX:a:i:t=poco piu:rj	!	!
(>4C\	do-	.	[>1c	do-	.	4r	.	.	4r	.	.
!	!	!	!	!	!	!	!	!	!	!	!LO:DY:a:rj
4D\)	.	.	.	.	.	(>4a\	do-	.	(>4cc\	do-	p
(>4E\	-na	.	.	.	.	4g\)	.	.	4b-\)	.	.
4F\)	.	.	.	.	.	4f\	-na	.	4a\	-na	.
!	!	!	!LO:LB:g=original	!	!	!	!	!	!	!	!
=44	=44	=44	=44	=44	=44	=44	=44	=44	=44	=44	=44
2F\	no-	.	2c\]	.	.	(>4g\	no-	.	(>4b-\	no-	.
.	.	.	.	.	.	8f#X\L	.	.	8a\L	.	.
.	.	.	.	.	.	8g\J)	.	.	8b-\J)	.	.
2E\	-bis	.	2c\	-na	.	(>4b-\	-bis	.	(>4dd\	-bis	.
.	.	.	.	.	.	8a\)	.	.	8cc\)	.	.
.	.	.	.	.	.	8r	.	.	8r	.	.
=45	=45	=45	=45	=45	=45	=45	=45	=45	=45	=45	=45
(>4C\	no-	.	1c	no-	.	4r	.	.	4r	.	.
4D\)	.	.	.	.	.	(>4a\	no-	.	(>4cc\	no-	.
(>4E\	-bis	.	.	.	.	4g\)	.	.	4b-\)	.	.
4F\)	.	.	.	.	.	4f\	-bis	.	4a\	-bis	.
=46	=46	=46	=46	=46	=46	=46	=46	=46	=46	=46	=46
2F\	pa-	.	2c\	.	.	(>4g\	pa-	.	(>4b-\	pa-	.
.	.	.	.	.	.	8f#X\L	.	.	8a\L	.	.
.	.	.	.	.	.	8g\J)	.	.	8b-\J)	.	.
2E\	-cem	.	2c\	-bis	.	4b-\	-cem	.	(>4dd\	-cem	.
.	.	.	.	.	.	8a\	.	.	8cc\)	.	.
.	.	.	.	.	.	8r	.	.	8r	.	.
=47	=47	=47	=47	=47	=47	=47	=47	=47	=47	=47	=47
1F	do-	.	4r	.	.	4r	.	.	4r	.	.
.	.	.	(>4c\	do-	.	(>4a\	do-	.	(>4cc\	do-	.
.	.	.	4e\)	.	.	4g\)	.	.	4b-\)	.	.
.	.	.	4f\	-na	.	4fn\	-na	.	4a\	-na	.
!	!	!	!	!	!	!LO:LB:g=original	!	!	!LO:LB:g=original	!	!
=48	=48	=48	=48	=48	=48	=48	=48	=48	=48	=48	=48
1BB-	-na	.	4r	.	.	4r	.	.	4r	.	.
.	.	.	(>4d\	do-	.	(>4f\	do-	.	(>4ff\	do-	.
.	.	.	4c\)	.	.	4a\)	.	.	4ee\)	.	.
!	!	!	!LO:SIC:l:v:s=-na	!	!	!	!	!	!	!	!
.	.	.	4B-\	-no	.	4b-\	-na	.	4dd\	-na	.
!LO:LB:g=original	!	!	!	!	!	!	!	!	!	!	!
=49	=49	=49	=49	=49	=49	=49	=49	=49	=49	=49	=49
2AA/	no-	.	2.f\	no-	.	2.f\	no-	.	(>4cc\	no-	.
.	.	.	.	.	.	.	.	.	4cc#X\	.	.
2BB-/	-bis	.	.	.	.	.	.	.	8dd\L	.	.
.	.	.	.	.	.	.	.	.	8cc#\J)	.	.
.	.	.	4d\	-bis	.	[>4g\	-bis	.	(>8dd\L	-bis	.
.	.	.	.	.	.	.	.	.	8b-\J)	.	.
=50	=50	=50	=50	=50	=50	=50	=50	=50	=50	=50	=50
1C	pa-	.	(>2.c\	pa-	.	4g\]	.	.	(>2a\	pa-	.
.	.	.	.	.	.	(>2f\	pa-	.	.	.	.
.	.	.	.	.	.	.	.	.	4g\	.	.
.	.	.	4G/)	.	.	4e\)	.	.	4cc\)	.	.
!	!	!	!LO:LB:g=original	!	!	!	!	!	!	!	!
=51	=51	=51	=51	=51	=51	=51	=51	=51	=51	=51	=51
!	!	!LO:DY:a:t=sf&colon;:rj	!	!	!	!	!	!LO:DY:a:rj	!	!	!
!	!	!LO:DY:a	!	!	!	!	!	!LO:DY:a	!	!	!LO:DY:a:t=sf.:rj
1D	-cem	sf > ]]	1G	-cem	.	1f	-cem	sf > ]]	1bn	-cem	sf
=52	=52	=52	=52	=52	=52	=52	=52	=52	=52	=52	=52
[>1C	do-	.	4r	.	.	4r	.	.	(>4cc\	do-	.
.	.	.	(>4c\	do-	.	(>4a\	do-	.	4dd\)	.	.
.	.	.	4B-\)	.	.	4g\)	.	.	(>4ee\	-na	.
.	.	.	4A\	-na	.	4f\	-na	.	4ff\)	.	.
=53	=53	=53	=53	=53	=53	=53	=53	=53	=53	=53	=53
2C/]	.	.	(>4B-\	no-	.	(>4g\	no-	.	2ff\	no-	.
.	.	.	8A\L	.	.	8f#X\L	.	.	.	.	.
.	.	.	8B-\J)	.	.	8g\J)	.	.	.	.	.
2C/	-na	.	(>4d\	-bis	.	(>4b-\	-bis	.	2ee\	-bis	.
.	.	.	8c\)	.	.	8a\)	.	.	.	.	.
.	.	.	8r	.	.	8r	.	.	.	.	.
!	!	!	!	!	!	!LO:LB:g=original	!	!	!LO:LB:g=original	!	!
=54	=54	=54	=54	=54	=54	=54	=54	=54	=54	=54	=54
[>1C	no-	.	4r	.	.	4r	.	.	(>4cc\	no-	.
.	.	.	(>4c\	no-	.	(>4a\	no-	.	4dd\)	.	.
.	.	.	4B-\)	.	.	4g\)	.	.	(>4ee\	-bis	.
.	.	.	4A\	-bis	.	4f\	-bis	.	4ff\)	.	.
=55	=55	=55	=55	=55	=55	=55	=55	=55	=55	=55	=55
2C/]	.	.	(>4B-\	pa-	.	(>4g\	pa-	.	2ff\	pa-	.
.	.	.	8A\L	.	.	8f#X\L	.	.	.	.	.
.	.	.	8B-\J)	.	.	8g\J)	.	.	.	.	.
2C/	-bis	.	(>4d\	-cem	.	(>4b-\	-cem	.	2ee\	-cem	.
.	.	.	8c\)	.	.	8a\)	.	.	.	.	.
.	.	.	8r	.	.	8r	.	.	.	.	.
!LO:LB:g=original	!	!	!LO:LB:g=original	!	!	!	!	!	!	!	!
=56	=56	=56	=56	=56	=56	=56	=56	=56	=56	=56	=56
(>4D\	do-	.	(>4A\	do-	.	(>4f\	do-	.	(>4ff\	do-	.
4E\)	.	.	4g\)	.	.	4g\)	.	.	4ee\)	.	.
(>4F\	-na	.	(>4f\	-na	.	2a\	-na	.	(>4dd\	-na	.
4F#X\)	.	.	4e-X\)	.	.	.	.	.	4cc\)	.	.
=57	=57	=57	=57	=57	=57	=57	=57	=57	=57	=57	=57
(>4G\	no-	.	(>4e-X\	no-	.	(>4g\	no-	.	4cc\	no-	.
4GG/)	.	.	4d\)	.	.	4d\)	.	.	4b-\	.	.
(>4AA/	-bis	.	(>4c\	-bis	.	(>4f#X\	-bis	.	4a\	-bis	.
4BB-/)	.	.	4B-\)	.	.	4g\)	.	.	4g\	.	.
=58	=58	=58	=58	=58	=58	=58	=58	=58	=58	=58	=58
!	!	!LO:DY:a:t=p&colon;:rj	!	!	!	!	!	!	!	!	!
[>1C	pa-	p	(>1A	pa-	.	[>1c	pa-	.	2g\	pa-	.
.	.	.	.	.	.	.	.	.	[>2f/	.	.
=59	=59	=59	=59	=59	=59	=59	=59	=59	=59	=59	=59
1C]	.	.	2.G\	.	.	1c]	.	.	2f/]	.	.
.	.	.	.	.	.	.	.	.	2e/	.	.
.	.	.	8A\L	.	.	.	.	.	.	.	.
.	.	.	8B-\J)	.	.	.	.	.	.	.	.
!	!	!	!	!	!	!LO:LB:g=original	!	!	!	!	!
=60	=60	=60	=60	=60	=60	=60	=60	=60	=60	=60	=60
4F\	-cem	.	4A\	-cem	.	4c\	-cem	.	4f/	-cem	.
2F\	do-	.	2c\	do-	.	2f\	do-	.	2a\	do-	.
4F\	-na	.	4c\	-na	.	4f\	-na	.	4a\	-na	.
!	!	!	!	!	!	!	!	!	!LO:LB:g=original	!	!
=61	=61	=61	=61	=61	=61	=61	=61	=61	=61	=61	=61
2F\	no-	.	[>1c	pa-	.	[>1f	pa-	.	[>1a	pa-	.
2D\	-bis	.	.	.	.	.	.	.	.	.	.
!LO:LB:g=original	!	!	!LO:LB:g=original	!	!	!	!	!	!	!	!
=62	=62	=62	=62	=62	=62	=62	=62	=62	=62	=62	=62
(>4C/	pa-	.	1c]	-a-	.	1f]	.	.	1a]	.	.
4D/	.	.	.	.	.	.	.	.	.	.	.
4C/	.	.	.	.	.	.	.	.	.	.	.
4AA/)	.	.	.	.	.	.	.	.	.	.	.
=63	=63	=63	=63	=63	=63	=63	=63	=63	=63	=63	=63
1FF;>	-cem	.	1c;>	-cem	.	1f;>	-cem	.	1a;>	-cem	.
==	==	==	==	==	==	==	==	==	==	==	==
*-	*-	*-	*-	*-	*-	*-	*-	*-	*-	*-	*-
!!!system-decoration: [(s1,s2,s3,s4)]
!!!RDF**kern: > = above
!!!RDF**kern: < = below
!!!ENC: Andrzej Gręziak
!!!END: 2021-01-21
!!!EED: Mateusz Mrugas
!!!EST: 2021-01-25
